X:63
T:Lad that I love,The. RHu.064
S:R.Hughes MS,1823,Whitchurch,Shrops.
A:Whitchurch, Shropshire
Z:Neil Brookes 2006
M:6/8
L:1/8
Q:3/8=90
R:Air
K:D
A|AFA A<de|f>ed dcB|AFA AFA|AdF E2 F/G/|!
AFA A<de|f>ed a>fd|B>cd AdF|E<DE D2::!
d|f>ed FAd|f>ed FAd|f>ed c<ad|B<ed c<HA f/e/|!
dcd BGd|AFd AFD|FAd dfa|HA>Bc d3:|

